actions/symbolic/panel-right-symbolic.svg

<?xml version="1.0" encoding="UTF-8" standalone="no"?>
<svg
   height="16"
   width="16"
   version="1.1"
   id="svg6"
   xml:space="preserve"
   xmlns="http://www.w3.org/2000/svg"
   xmlns:svg="http://www.w3.org/2000/svg"><defs
     id="defs10" /><path
     id="rect520-6-7-9"
     style="fill:#555761;stroke-width:1;stop-color:#000000"
     d="M 12.5,2 C 13.330999,2 14,2.6690016 14,3.5 v 9 C 14,13.330998 13.330999,14 12.5,14 H 10 9 2.5 C 1.669001,14 1,13.330998 1,12.5 v -9 C 1,2.6690016 1.669001,2 2.5,2 H 9 10 Z m 0,1 H 10 v 10 h 2.5 c 0.277,0 0.5,-0.223 0.5,-0.5 v -9 C 13,3.2230006 12.777,3 12.5,3 Z M 9,3 H 2.5 C 2.223,3 2,3.2230006 2,3.5 v 9 C 2,12.777 2.223,13 2.5,13 H 9 Z" /><path
     style="opacity:0.25;fill:#555761;stroke-width:1;stop-color:#000000"
     d="M 12.5,3 H 10 v 10 h 2.5 c 0.277,0 0.5,-0.223 0.5,-0.5 v -9 C 13,3.2230006 12.777,3 12.5,3 Z"
     id="path416" /></svg>

<svg
        xmlns='http://www.w3.org/2000/svg'
        xmlns:svg='http://www.w3.org/2000/svg'
        id='svg6'
        width='16'
        height='16'>
  <path
          id='rect520-6-7-9'
          fill='url(#gpa:foreground) #555761'
          fill-opacity='1'
          fill-rule='nonzero'
          stroke-width='1'
          d='M 12.5 2 C 13.331 2, 14 2.669, 14 3.5 L 14 12.5 C 14 13.331, 13.331 14, 12.5 14 L 10 14 L 9 14 L 2.5 14 C 1.669 14, 1 13.331, 1 12.5 L 1 3.5 C 1 2.669, 1.669 2, 2.5 2 L 9 2 L 10 2 Z M 12.5 3 L 10 3 L 10 13 L 12.5 13 C 12.777 13, 13 12.777, 13 12.5 L 13 3.5 C 13 3.223, 12.777 3, 12.5 3 Z M 9 3 L 2.5 3 C 2.223 3, 2 3.223, 2 3.5 L 2 12.5 C 2 12.777, 2.223 13, 2.5 13 L 9 13 Z'
          class="foreground">
  </path>
  <path
          id='path416'
          opacity='0.25'
          fill='url(#gpa:foreground) #555761'
          fill-opacity='1'
          fill-rule='nonzero'
          stroke-width='1'
          d='M 12.5 3 L 10 3 L 10 13 L 12.5 13 C 12.777 13, 13 12.777, 13 12.5 L 13 3.5 C 13 3.223, 12.777 3, 12.5 3 Z'
          class="foreground">
  </path>
</svg>
